X: 29823
T: O'Connor Donn's
R: reel
M: 4/4
K: Gmajor
|:B2AG DG G2|B2AG A3G|FDFG A2fe|decA BG G2|
BDAD GD D2|B2AG A3G|FDFG Adfe|decA G3z:|
|:a3f defa|defa g3e|edaf defd|eggf g3d|
a3f defa|faag fdfa|fdab c'bag|1 fgaf g3z:|2 fgaf gedc||

